X:8561
T:Killarney Boys Of Pleasure 
T:Gweebarra Bridge Reel
R:Reel
S:Mary Macnamara, PJ % Martin Hayes
H:
N:
D:
Z:Adrian Scahill
M:4/4
L:1/8
K:D
E3D (3EFE FA|B2AF DEFA|B3d efed|B2AF DEFD|\
E2FD E2FA|B2AF DEFA|BABd efed|B2AF FEEA||\
Beed Beed|B2AF DEFA|f3e f3e|dBAF DEFA|\
Beed Beed|B2AF DEFA|f3e defe|dBAF FEED||\
